_inc/images/systems/logos/auto-fight.svg

<svg viewBox="0 0 200 40" xmlns="http://www.w3.org/2000/svg">
    <path d="m63.368 18.249-.818 4.458h-4.909l-1.213 6.942H50.67l3.334-18.702h11.819l-1.606 4.788h-5.334l-.424 2.514h4.909Zm7.061 11.4h-5.758l3.334-18.702h5.758l-3.334 18.702Zm13.881-5.506.151-.808h-1.455l.819-4.578h6.94l-1.788 9.995c-2.465.897-4.94 1.346-7.425 1.346-2.485 0-4.28-.489-5.384-1.466-1.099-.978-1.647-2.484-1.647-4.519 0-.858.141-2.124.424-3.8.606-3.471 1.677-5.975 3.213-7.511 1.535-1.536 4.081-2.304 7.637-2.304.747 0 1.7.08 2.859.24 1.165.159 2.02.339 2.566.538l-1.667 4.579c-1.515-.28-2.907-.42-4.172-.42-1.26 0-2.162.1-2.708.3-.545.199-.869.599-.969 1.197L80.218 25.4h1.91c.687 0 1.195-.073 1.525-.219.337-.153.556-.499.657-1.038Zm23.305 5.506h-5.758l1.151-6.613h-4.333l-1.152 6.613h-5.758l3.334-18.702h5.758l-1.182 6.613h4.334l1.182-6.613h5.758l-3.334 18.702Zm19.911-18.702-.879 4.788h-4.182l-2.455 13.914h-5.758l2.455-13.914h-4.152l.879-4.788h14.092Zm4.607 18.702h-5.759l3.334-18.702h5.758l-3.333 18.702Zm19.577 0h-5.425l-3.091-6.643c-.081-.139-.121-.336-.121-.588 0-.247.02-.529.06-.848h-.242l-1.425 8.079h-5.758l3.334-18.702h5.425l3.091 6.643c.061.139.091.336.091.589 0 .246-.02.528-.061.848h.243l1.455-8.08h5.758l-3.334 18.702Zm14.153-5.506.151-.808h-1.454l.818-4.578h6.94l-1.788 9.995c-2.465.897-4.94 1.346-7.425 1.346-2.485 0-4.28-.489-5.385-1.466-1.097-.978-1.646-2.484-1.646-4.519 0-.858.141-2.124.424-3.8.606-3.471 1.677-5.975 3.213-7.511 1.535-1.536 4.081-2.304 7.637-2.304.747 0 1.7.08 2.859.24 1.164.159 2.02.339 2.566.538l-1.667 4.579c-1.516-.28-2.907-.42-4.172-.42-1.26 0-2.162.1-2.708.3-.545.199-.869.599-.969 1.197l-1.485 8.468h1.909c.687 0 1.195-.073 1.525-.219.336-.153.556-.499.657-1.038Z" style="white-space:pre;fill:#fff"/>
    <path d="M516 1238c-79-54-173-149-226-228-50-74-55-58 65-205 65-80 86-114 104-170 28-87 75-171 108-192 13-9 41-17 61-18 32-2 37-6 43-33 26-128 153-172 295-102 78 38 212 164 257 241 79 135 48 261-102 414-63 64-130 101-248 136-28 8-84 46-158 106-63 51-120 93-127 92-7 0-40-19-72-41zm40-83c4-8-1-30-10-49s-16-39-16-45c0-17 51-13 71 5 34 31 76-11 45-45-9-10-16-29-16-43 0-22 3-25 27-20 15 3 34 11 41 19 19 19 54-2 50-30-2-18-10-22-38-23-99-2-103-6-102-90 1-47-8-59-38-49-20 6-29 50-11 57 5 2 12 17 15 34 7 30 6 31-21 26-15-2-35-11-44-19-32-28-73 15-44 47 8 9 15 29 15 43 0 32-19 35-60 11-32-20-60-13-60 14 0 29 19 40 59 35 53-7 78 9 83 52 2 19 1 41-3 47-5 7-3 18 3 25 14 18 47 16 54-2z" style="fill:#ccc" transform="matrix(.01606 0 0 .01565 26.884 9.885)"/>
    <path d="M543 1013c-13-2-23-12-23-21s-3-27-6-40c-6-22-5-23 32-16 22 3 40 7 41 8 0 0 4 18 8 39 8 40 5 41-52 30zm-408-47C0 900 8 919 44 751c31-143 32-145 19-250-16-126-11-172 30-271C167 47 242-7 404 2c151 9 312 82 376 170 35 47 37 58 13 58-46 0-123 70-144 130-7 19-18 30-30 30-23 0-102-39-174-85l-50-32 4 44c2 31-2 50-13 62-16 17-15 19 16 25 35 7 88 51 88 73 0 8-11 35-24 61s-31 70-40 98c-14 45-21 52-54 62-34 11-39 10-59-13-13-15-23-34-23-44 0-41-52-52-67-15-4 11 6 27 33 49 46 39 40 52-26 57-38 3-46 7-48 25-2 16 4 26 20 34 26 11 53 47 43 57-3 3-27 9-53 12-42 4-47 8-47 30 0 30 35 40 55 15 12-15 40-21 40-8 0 3-7 14-15 23-14 16-14 21 6 54 28 47 16 46-96-8z" style="fill:#ccc" transform="matrix(.01606 0 0 .01565 26.884 9.885)"/>
    <path d="M265 804c-19-30-12-41 31-50 42-8 54 20 23 53-28 29-33 29-54-3z" style="fill:#ccc" transform="matrix(.01606 0 0 .01565 26.884 9.885)"/>
</svg>

<?xml version="1.0" encoding="utf-8"?>
<svg viewBox="0 0 200 40" xmlns="http://www.w3.org/2000/svg">
  <path d="M 63.368 18.249 L 62.55 22.707 L 57.641 22.707 L 56.428 29.649 L 50.67 29.649 L 54.004 10.947 L 65.823 10.947 L 64.217 15.735 L 58.883 15.735 L 58.459 18.249 L 63.368 18.249 Z M 70.429 29.649 L 64.671 29.649 L 68.005 10.947 L 73.763 10.947 L 70.429 29.649 Z M 84.31 24.143 L 84.31 24.143 L 84.461 23.335 L 83.006 23.335 L 83.825 18.757 L 90.765 18.757 L 88.977 28.752 L 88.977 28.752 C 86.512 29.649 84.037 30.098 81.552 30.098 L 81.552 30.098 L 81.552 30.098 C 79.067 30.098 77.272 29.609 76.168 28.632 L 76.168 28.632 L 76.168 28.632 C 75.069 27.654 74.521 26.148 74.521 24.113 L 74.521 24.113 L 74.521 24.113 C 74.521 23.255 74.662 21.989 74.945 20.313 L 74.945 20.313 L 74.945 20.313 C 75.551 16.842 76.622 14.338 78.158 12.802 L 78.158 12.802 L 78.158 12.802 C 79.693 11.266 82.239 10.498 85.795 10.498 L 85.795 10.498 L 85.795 10.498 C 86.542 10.498 87.495 10.578 88.654 10.738 L 88.654 10.738 L 88.654 10.738 C 89.819 10.897 90.674 11.077 91.22 11.276 L 91.22 11.276 L 89.553 15.855 L 89.553 15.855 C 88.038 15.575 86.646 15.435 85.381 15.435 L 85.381 15.435 L 85.381 15.435 C 84.121 15.435 83.219 15.535 82.673 15.735 L 82.673 15.735 L 82.673 15.735 C 82.128 15.934 81.804 16.334 81.704 16.932 L 81.704 16.932 L 80.218 25.4 L 82.128 25.4 L 82.128 25.4 C 82.815 25.4 83.323 25.327 83.653 25.181 L 83.653 25.181 L 83.653 25.181 C 83.99 25.028 84.209 24.682 84.31 24.143 Z M 107.615 29.649 L 101.857 29.649 L 103.008 23.036 L 98.675 23.036 L 97.523 29.649 L 91.765 29.649 L 95.099 10.947 L 100.857 10.947 L 99.675 17.56 L 104.009 17.56 L 105.191 10.947 L 110.949 10.947 L 107.615 29.649 Z M 127.526 10.947 L 126.647 15.735 L 122.465 15.735 L 120.01 29.649 L 114.252 29.649 L 116.707 15.735 L 112.555 15.735 L 113.434 10.947 L 127.526 10.947 Z M 132.133 29.649 L 126.374 29.649 L 129.708 10.947 L 135.466 10.947 L 132.133 29.649 Z M 151.71 29.649 L 146.285 29.649 L 143.194 23.006 L 143.194 23.006 C 143.113 22.867 143.073 22.67 143.073 22.418 L 143.073 22.418 L 143.073 22.418 C 143.073 22.171 143.093 21.889 143.133 21.57 L 143.133 21.57 L 142.891 21.57 L 141.466 29.649 L 135.708 29.649 L 139.042 10.947 L 144.467 10.947 L 147.558 17.59 L 147.558 17.59 C 147.619 17.729 147.649 17.926 147.649 18.179 L 147.649 18.179 L 147.649 18.179 C 147.649 18.425 147.629 18.707 147.588 19.027 L 147.588 19.027 L 147.831 19.027 L 149.286 10.947 L 155.044 10.947 L 151.71 29.649 Z M 165.863 24.143 L 165.863 24.143 L 166.014 23.335 L 164.56 23.335 L 165.378 18.757 L 172.318 18.757 L 170.53 28.752 L 170.53 28.752 C 168.065 29.649 165.59 30.098 163.105 30.098 L 163.105 30.098 L 163.105 30.098 C 160.62 30.098 158.825 29.609 157.72 28.632 L 157.72 28.632 L 157.72 28.632 C 156.623 27.654 156.074 26.148 156.074 24.113 L 156.074 24.113 L 156.074 24.113 C 156.074 23.255 156.215 21.989 156.498 20.313 L 156.498 20.313 L 156.498 20.313 C 157.104 16.842 158.175 14.338 159.711 12.802 L 159.711 12.802 L 159.711 12.802 C 161.246 11.266 163.792 10.498 167.348 10.498 L 167.348 10.498 L 167.348 10.498 C 168.095 10.498 169.048 10.578 170.207 10.738 L 170.207 10.738 L 170.207 10.738 C 171.371 10.897 172.227 11.077 172.773 11.276 L 172.773 11.276 L 171.106 15.855 L 171.106 15.855 C 169.59 15.575 168.199 15.435 166.934 15.435 L 166.934 15.435 L 166.934 15.435 C 165.674 15.435 164.772 15.535 164.226 15.735 L 164.226 15.735 L 164.226 15.735 C 163.681 15.934 163.357 16.334 163.257 16.932 L 163.257 16.932 L 161.772 25.4 L 163.681 25.4 L 163.681 25.4 C 164.368 25.4 164.876 25.327 165.206 25.181 L 165.206 25.181 L 165.206 25.181 C 165.542 25.028 165.762 24.682 165.863 24.143 Z" style="white-space: pre; fill: rgb(255, 255, 255);"/>
  <g id="g-1" fill="#000000" stroke="none" transform="matrix(0.01606, 0, 0, 0.01565, 26.883924, 9.885435)">
    <path d="M516 1238 c-79 -54 -173 -149 -226 -228 -50 -74 -55 -58 65 -205 65 -80 86 -114 104 -170 28 -87 75 -171 108 -192 13 -9 41 -17 61 -18 32 -2 37 -6 43 -33 26 -128 153 -172 295 -102 78 38 212 164 257 241 79 135 48 261 -102 414 -63 64 -130 101 -248 136 -28 8 -84 46 -158 106 -63 51 -120 93 -127 92 -7 0 -40 -19 -72 -41z m40 -83 c4 -8 -1 -30 -10 -49 -9 -19 -16 -39 -16 -45 0 -17 51 -13 71 5 34 31 76 -11 45 -45 -9 -10 -16 -29 -16 -43 0 -22 3 -25 27 -20 15 3 34 11 41 19 19 19 54 -2 50 -30 -2 -18 -10 -22 -38 -23 -99 -2 -103 -6 -102 -90 1 -47 -8 -59 -38 -49 -20 6 -29 50 -11 57 5 2 12 17 15 34 7 30 6 31 -21 26 -15 -2 -35 -11 -44 -19 -32 -28 -73 15 -44 47 8 9 15 29 15 43 0 32 -19 35 -60 11 -32 -20 -60 -13 -60 14 0 29 19 40 59 35 53 -7 78 9 83 52 2 19 1 41 -3 47 -5 7 -3 18 3 25 14 18 47 16 54 -2z" style="fill: rgb(204, 204, 204);"/>
    <path d="M543 1013 c-13 -2 -23 -12 -23 -21 0 -9 -3 -27 -6 -40 -6 -22 -5 -23 32 -16 22 3 40 7 41 8 0 0 4 18 8 39 8 40 5 41 -52 30z" style="fill: rgb(204, 204, 204);"/>
    <path d="M135 966 c-135 -66 -127 -47 -91 -215 31 -143 32 -145 19 -250 -16 -126 -11 -172 30 -271 74 -183 149 -237 311 -228 151 9 312 82 376 170 35 47 37 58 13 58 -46 0 -123 70 -144 130 -7 19 -18 30 -30 30 -23 0 -102 -39 -174 -85 l-50 -32 4 44 c2 31 -2 50 -13 62 -16 17 -15 19 16 25 35 7 88 51 88 73 0 8 -11 35 -24 61 -13 26 -31 70 -40 98 -14 45 -21 52 -54 62 -34 11 -39 10 -59 -13 -13 -15 -23 -34 -23 -44 0 -41 -52 -52 -67 -15 -4 11 6 27 33 49 46 39 40 52 -26 57 -38 3 -46 7 -48 25 -2 16 4 26 20 34 26 11 53 47 43 57 -3 3 -27 9 -53 12 -42 4 -47 8 -47 30 0 30 35 40 55 15 12 -15 40 -21 40 -8 0 3 -7 14 -15 23 -14 16 -14 21 6 54 28 47 16 46 -96 -8z" style="fill: rgb(204, 204, 204);"/>
    <path d="M265 804 c-19 -30 -12 -41 31 -50 42 -8 54 20 23 53 -28 29 -33 29 -54 -3z" style="fill: rgb(204, 204, 204);"/>
  </g>
</svg>
